X:1
T:Zwölf Deutsche und Italiänische Romantische Gesänge
T:Notturno
T:Zwölf Deutsche und Italiänische Romantische Gesänge
T:6. Notturno
T:Louise Reichardt
T:Pietro Metastasio
T:OpenScore (CC0)
T:OpenScore (CC0)
C:Louise Reichardt
Z:Pietro Metastasio
Z:OpenScore (CC0)
%%score 1 { 2 | 3 }
L:1/8
Q:1/4=70
M:4/4
K:A
V:1 treble nm="Voice"
V:2 treble nm="Piano"
V:3 bass 
V:1
"^Lento e con espressione" c2 A B c2 A2 | !>!d4 c4 |{c} B2 B B (B2 A) B | !>!c4 A4 | c2 A B c2 A2 | %5
w: Già del- la Not- te o-|scu- ro|re- gna l'om- bro- * so|lu- me|e tu non dor- mi  an-|
 !>!d4 c2 e2- | e2 A A (A2 G) A |{c} B4 z4 | B2 G E ^Dc BA | A2 G2!<(! e4- | %10
w: co- ra a-|* ni- ma mia * per-|chè?|Vol- ge le mol- * le *|piu- me dol-|
 e!<)!^d cB (B/^d/!wedge!f/)(e/ d/)(c/B/) A/ | A2 G2 z4 | =d2 c B B3 A | (G2 f) e (e3 d) | %14
w: * * ce a- mor _ _ _ _ _ _ mio|nu- me|le tue pu- pil- le|lan- * gui- de *|
 c2 c c B3 c | A B c d f e d c | B c{e} d B A2 TG2 |{B} A4 z4 | c2 (AB) c2 A2 | d4 c4 | %20
w: por- ta- te a ri- po-|sar le tue pu- pil- le lan- gui-|de por- ta- te a ri- po-|sar.|Ch'io con * dol- ce|fo- co|
 B2 B B (B2 A) B | c4 A4 | c2 A B c2 A2 | d4 c2 z A | B3 B B3 c | A2 z2 B2 z2 | c2 z2 TB4 | %27
w: tut- to fa- rò * pa-|le- se|la fiam- ma che m'a-|ce- se per|far- ti ad- dor- men-|tar ad-|dor- men-|
 A4 z4 |] %28
w: tar.|
V:2
 [CE]A, [CE]A, [CE]A, [CE]A, | [DF]A, [DF]A, [CE]A, [CE]A, | %2
 [B,D][I:staff +1]E,[I:staff -1] [B,D][I:staff +1]E,[I:staff -1] [B,D][I:staff +1]E,[I:staff -1] [B,D][I:staff +1]E, | %3
 [A,C]E, [A,C]E, [A,C]E, [A,C]E, |[I:staff -1] [CE]A, [CE]A, [CE]A, [CE]A, | %5
 [DF]A, [DF]A, [CE]A, [CE]A, | [CE]A, [CE]A, [A,^DA]4 | B,/E/G/E/ B,/E/G/E/ B,/E/G/E/ B,/E/G/E/ | %8
 B,/E/G/E/ B,/E/G/E/ B,/^D/A/D/ B,/D/A/D/ | B,/E/A/E/ B,/E/G/E/ B,/E/G/E/ B,/E/G/E/ | %10
 B,/^D/A/D/ B,/D/A/D/ B,/^D/A/D/ B,/D/A/D/ | B,/E/G/E/ B,/E/G/E/ B,/E/G/E/ B,/E/G/E/ | %12
 B,/=D/G/D/ B,/D/G/D/ B,/D/G/D/ B,/D/G/D/ | B,/D/G/D/ B,/D/G/D/ B,/D/G/D/ B,/D/G/D/ | %14
 C/E/A/E/ C/E/A/E/ B,/D/G/D/ B,/D/G/D/ | C/E/A/E/ C/E/A/E/ C/E/A/E/ C/E/A/E/ | %16
 D/F/B/F/ D/F/B/F/ C/E/A/E/ B,/E/G/E/ | C/E/A/E/ C/E/A/E/ B,/D/G/D/ B,/D/G/D/ | %18
 C/E/A/E/ C/E/A/E/ C/E/A/E/ C/E/A/E/ | D/F/A/F/ D/F/A/F/ C/E/A/E/ C/E/A/E/ | %20
 B,/E/G/E/ B,/E/G/E/ B,/E/G/E/ B,/E/G/E/ | C/E/A/E/ C/E/A/E/ C/E/A/E/ C/E/A/E/ | %22
 C/E/A/E/ C/E/A/E/ C/E/A/E/ C/E/A/E/ | D/F/A/F/ D/F/A/F/ C/E/A/E/ C/E/A/E/ | %24
 B,/E/G/E/ B,/E/G/E/"_dim." B,/E/G/E/ B,/E/G/E/ | C/E/A/E/ C/E/A/E/!>(! B,/E/G/E/ B,/E/G/E/!>)! | %26
!pp! C/E/A/E/ C/E/A/E/ B,/E/G/E/ B,/E/G/E/ | C/E/A/E/ C/ z/ z z4 |] %28
V:3
 [A,,E,]4 [A,,E,]4 | [A,,D,]4 [A,,E,]4 | [E,,B,,E,]8 | A,,8 | [A,,E,]4 [A,,E,]4 | %5
 [A,,D,]4 [A,,E,]4 | [A,,E,]4 F,4 | E,4 z4 | E,4 [B,,F,]4 | E,4 E,4 | F,4 [B,,F,]4 | E,4 E,4 | %12
 E,4 E,4 | E,4 E,4 | E,,8 | A,,4 A,,4 | D,4 E,4 | A,,4 [E,,E,]4 | [A,,E,]4 [A,,E,]4 | %19
 [A,,D,]4 [A,,E,]4 | [E,,B,,E,]8 | [A,,E,]8 | [A,,E,]4 [A,,E,]4 | [A,,D,]4 [A,,E,]4 | [E,,B,,E,]8 | %25
 [A,,E,]4 [E,,B,,E,]4 | [A,,E,]4 [E,,B,,E,]4 | [A,,E,]2 z/ A,/E,/C,/ A,,4 |] %28

